packages/core/src/Assets/SvgComponents/settings/dark/bottom.svg

<?xml version="1.0" encoding="UTF-8"?>
<svg width="160px" height="120px" viewBox="0 0 160 120" version="1.1" xmlns="http://www.w3.org/2000/svg" xmlns:xlink="http://www.w3.org/1999/xlink">
    <!-- Generator: Sketch 55.2 (78181) - https://sketchapp.com -->
    <title>Group </title>
    <desc>Created with Sketch.</desc>
    <defs>
        <linearGradient x1="50%" y1="97.1640173%" x2="50%" y2="3.82837812%" id="linearGradient-1">
            <stop stop-color="#101320" stop-opacity="0" offset="0%"></stop>
            <stop stop-color="#FFFFFF" stop-opacity="0.16" offset="100%"></stop>
        </linearGradient>
    </defs>
    <g id="Symbols" stroke="none" stroke-width="1" fill="none" fill-rule="evenodd">
        <g id="images/img-charts-charts-positions-bottom">
            <g id="Group-" transform="translate(-0.000099, 0.000000)">
                <rect id="bg-all" fill="#151717" fill-rule="nonzero" x="9.89910332e-05" y="0" width="160" height="120" rx="4"></rect>
                <polygon id="chart-shade" fill="url(#linearGradient-1)" points="9.89910335e-05 27.5 1.3484136 31.8238949 5.39335742 39.3534529 8.08998663 43.1182318 12.1349305 39.3534529 14.8315597 39.3534529 17.5281889 35.5886739 18.8765035 39.3534529 20.2248181 35.5886739 21.5731327 39.3534529 24.2697619 39.3534529 25.6180765 54.4125688 28.3147057 50.6477898 32.3596496 46.8830108 33.7079642 50.6477898 39.1012226 50.6477898 42.1461664 76.4125688 44.494481 50.6477898 45.8427956 54.4125688 47.1911102 50.6477898 53.9326833 43.1182318 55.2809979 31.8238949 59.3259417 28.0591159 67.4158293 31.8238949 70.1124585 35.5886739 72.8090878 35.5886739 74.1574024 31.8238949 75.505717 35.5886739 76.8540316 31.8238949 78.2023462 28.0591159 82.24729 20.529558 84.9439192 16.764779 87.6405484 16.764779 88.988863 13 91.6854922 16.764779 94.3821215 16.764779 97.0787507 20.529558 98.4270653 39.3534529 99.7753799 35.5886739 106.516953 31.8238949 109.213582 31.8238949 110.561897 43.1182318 111.910211 31.8238949 113.258526 35.5886739 127.30347 35.5886739 130.000099 35.5886739 130.000099 96 9.89910335e-05 96"></polygon>
                <path d="M12.3301713,39.5909091 L8.42880646,43.1858789 C8.20853982,43.3888468 7.86045885,43.353934 7.68489013,43.1112634 L4.95388598,39.3293726 L0.908942163,31.8748272 L0.85860828,31.7368164 L0.0102936729,27.6004527 C-0.0451848362,27.3299407 0.129134257,27.0656732 0.399646264,27.0101947 C0.670158272,26.9547162 0.9344258,27.1290353 0.989904309,27.3995473 L1.8233257,31.4632919 L5.79845392,38.7978275 L8.16512666,42.0690354 L11.7961106,38.723212 C11.8884354,38.638138 12.0093858,38.5909091 12.1349305,38.5909091 L14.5761657,38.5909091 L17.1230924,35.0705548 C17.3584224,34.7452824 17.861801,34.8160185 17.9983709,35.1935514 L18.8765035,37.6210559 L19.7546361,35.1935514 C19.913762,34.7536647 20.5358742,34.7536647 20.6950001,35.1935514 L21.9239703,38.5909091 L24.2697619,38.5909091 C24.5284535,38.5909091 24.7444298,38.7882348 24.7677297,39.045875 L25.9961512,52.6292382 L27.9758859,49.9050302 L32.0208297,46.1777575 C32.2836298,45.9355965 32.7082685,46.0393215 32.8298315,46.3753695 L34.0588017,49.7727273 L39.1012226,49.7727273 C39.3546325,49.7727273 39.5679726,49.9623066 39.597757,50.2139601 L42.0819291,71.2031724 L43.996551,50.2272776 C44.0451427,49.6949245 44.7828196,49.5999555 44.964663,50.1026423 L45.8427956,52.5301468 L46.7209283,50.1026423 L46.8202677,49.9373531 L53.4552951,42.6006213 L54.7845936,31.5765067 C54.7988332,31.4584158 54.8547056,31.3492693 54.942178,31.2686666 L58.9871219,27.5413939 C59.1355997,27.4045767 59.3517935,27.370485 59.5351689,27.454972 L67.6250566,31.1822448 C67.7030992,31.2182015 67.7705583,31.2736641 67.8209258,31.343282 L70.3678525,34.8636364 L72.4582502,34.8636364 L73.6872204,31.4662786 C73.8463463,31.026392 74.4684584,31.026392 74.6275843,31.4662786 L75.505717,33.8937832 L76.3838496,31.4662786 L77.7628747,27.6706274 L81.8421935,20.1614639 L84.5388227,16.4341911 C84.6328466,16.3042315 84.7835135,16.2272727 84.9439192,16.2272727 L87.2897109,16.2272727 L88.5186811,12.829915 C88.6552509,12.4523822 89.1586295,12.381646 89.3939595,12.7069184 L91.9408862,16.2272727 L94.3821215,16.2272727 C94.5425272,16.2272727 94.693194,16.3042315 94.787218,16.4341911 L97.4838472,20.1614639 C97.5383275,20.2367664 97.5707404,20.3257638 97.5774472,20.4184655 L98.7562028,36.71119 L99.3051979,35.1935514 C99.3463858,35.0796919 99.4274906,34.9846463 99.533454,34.9260614 L106.275027,31.1987887 C106.349087,31.1578426 106.432328,31.1363636 106.516953,31.1363636 L109.213582,31.1363636 C109.466573,31.1363636 109.6797,31.3253348 109.709986,31.5765067 L110.561897,38.6415545 L111.413807,31.5765067 C111.476858,31.0536171 112.201234,30.9710103 112.380393,31.4662786 L113.609364,34.8636364 L130.000099,34.8636364 C130.276241,34.8636364 130.500099,35.087494 130.500099,35.3636364 C130.500099,35.6397787 130.276241,35.8636364 130.000099,35.8636364 L113.258526,35.8636364 C113.047966,35.8636364 112.85997,35.7317243 112.788344,35.5337214 L112.155,33.7829104 L111.058301,42.8780387 C110.987537,43.4648962 110.136256,43.4648962 110.065493,42.8780387 L108.770251,32.1363636 L106.64597,32.1363636 L100.181673,35.7103364 L98.8972473,39.2609941 C98.7136459,39.7685407 97.967316,39.6653162 97.9283687,39.1269891 L96.5903138,20.6324343 L94.1267275,17.2272727 L91.6854922,17.2272727 C91.5250865,17.2272727 91.3744197,17.1503139 91.2803957,17.0203543 L89.1376234,14.0586209 L88.1107304,16.8973577 C88.0391042,17.0953607 87.8511083,17.2272727 87.6405484,17.2272727 L85.1990236,17.2272727 L82.6867614,20.693009 L78.6725282,28.0791759 L75.9758989,35.5337214 C75.8167731,35.973608 75.1946609,35.973608 75.035535,35.5337214 L74.1574024,33.1062168 L73.2792697,35.5337214 C73.2076436,35.7317243 73.0196476,35.8636364 72.8090878,35.8636364 L70.1124585,35.8636364 C69.9520528,35.8636364 69.801386,35.7866776 69.707362,35.656718 L67.0875605,32.0356362 L59.4195542,28.5027379 L55.7553405,31.8791812 L54.4290875,42.8780387 C54.4167148,42.9806476 54.3728491,43.0769012 54.3035258,43.153556 L47.6278649,50.5352186 L46.3129776,54.170085 C46.1538517,54.6099717 45.5317395,54.6099717 45.3726136,54.170085 L44.7882658,52.5547174 L42.6440964,76.0454497 C42.5895157,76.6434167 41.7202058,76.6550582 41.649632,76.0587672 L38.6569102,50.7727273 L33.7079642,50.7727273 C33.4974043,50.7727273 33.3094083,50.6408152 33.2377822,50.4428123 L32.1448203,47.421435 L28.7198022,50.5658089 L26.023173,54.2930816 C25.7522156,54.6675981 25.1617433,54.5054112 25.1201087,54.0450341 L23.8129393,39.5909091 L21.5731327,39.5909091 C21.3625728,39.5909091 21.1745769,39.458997 21.1029507,39.2609941 L20.2248181,36.8334896 L19.3466855,39.2609941 C19.1875596,39.7008808 18.5654474,39.7008808 18.4063215,39.2609941 L17.3794285,36.4222573 L15.2366562,39.3839907 C15.1426322,39.5139503 14.9919654,39.5909091 14.8315597,39.5909091 L12.3301713,39.5909091 Z" id="chart-border" fill="#FFFFFF" fill-rule="nonzero"></path>
                <path d="M144.609054,34.75 L149.415024,29 L160.000099,29 L160.000099,41 L149.415024,41 L144.609054,35.25 L143.500099,35.25 L143.500099,34.75 L144.609054,34.75 Z M132.896059,34.75 L133.500099,34.75 L133.500099,35.25 L132.999281,35.25 C132.999825,35.2665999 133.000099,35.2832679 133.000099,35.3 C133.000099,36.1284271 132.328526,36.8 131.500099,36.8 C130.671672,36.8 130.000099,36.1284271 130.000099,35.3 C130.000099,34.4715729 130.671672,33.8 131.500099,33.8 C132.134368,33.8 132.676691,34.1936695 132.896059,34.75 Z M135.500099,35.25 L135.500099,34.75 L137.500099,34.75 L137.500099,35.25 L135.500099,35.25 Z M139.500099,35.25 L139.500099,34.75 L141.500099,34.75 L141.500099,35.25 L139.500099,35.25 Z" id="current-spot" fill="#FF444F"></path>
                <rect id="bg" fill="#151717" fill-rule="nonzero" x="5.00009899" y="96" width="151" height="24"></rect>
                <polygon id="path" fill="#242828" fill-rule="nonzero" points="5.00009899 96.5 5.00009899 95.5 156.000099 95.5 156.000099 96.5"></polygon>
                <path d="M34.2908721,109.93722 L34.9268757,110.573223 C35.0245067,110.670854 35.0245067,110.829146 34.9268757,110.926777 C34.8292446,111.024408 34.6709534,111.024408 34.5733223,110.926777 L29.0733223,105.426777 C28.9756912,105.329146 28.9756912,105.170854 29.0733223,105.073223 C29.1709534,104.975592 29.3292446,104.975592 29.4268757,105.073223 L30.0628832,105.709231 C30.5368402,105.307914 31.1233607,105.062144 31.750099,105.010303 L31.750099,104.25 C31.750099,104.111929 31.8620278,104 32.000099,104 C32.1381702,104 32.250099,104.111929 32.250099,104.25 L32.250099,105.010268 C33.7075483,105.130506 34.8695934,106.292551 34.9898305,107.75 L35.750099,107.75 C35.8881702,107.75 36.000099,107.861929 36.000099,108 C36.000099,108.138071 35.8881702,108.25 35.750099,108.25 L34.9897946,108.25 C34.9379366,108.876903 34.6920484,109.463453 34.2908721,109.93722 Z M33.9358614,109.582209 C34.2977041,109.140327 34.500099,108.586305 34.500099,108 C34.500099,106.619288 33.3808108,105.5 32.000099,105.5 C31.4139382,105.5 30.8599634,105.702262 30.4178947,106.064242 L30.7736808,106.420028 C31.1206247,106.150267 31.5488932,106 32.000099,106 C33.1046685,106 34.000099,106.895431 34.000099,108 C34.000099,108.450943 33.8500407,108.879169 33.5800641,109.226412 L33.9358614,109.582209 Z M33.2228203,108.869168 C33.4016353,108.618275 33.500099,108.317018 33.500099,108 C33.500099,107.171573 32.8285261,106.5 32.000099,106.5 C31.6829382,106.5 31.3816259,106.598591 31.1309236,106.777271 L33.2228203,108.869168 Z M31.750099,110.989732 C30.2926497,110.869494 29.1306045,109.707449 29.0103674,108.25 L28.250099,108.25 C28.1120278,108.25 28.000099,108.138071 28.000099,108 C28.000099,107.861929 28.1120278,107.75 28.250099,107.75 L29.0103814,107.75 C29.0341733,107.461914 29.099021,107.181267 29.202502,106.914695 C29.2524674,106.785982 29.3973152,106.722144 29.5260284,106.772109 C29.6547417,106.822075 29.7185795,106.966922 29.668614,107.095636 C29.55771,107.381329 29.500099,107.686484 29.500099,108 C29.500099,109.380712 30.6193871,110.5 32.000099,110.5 C32.3260745,110.5 32.6429735,110.437714 32.9382534,110.318082 C33.0662208,110.266237 33.2119882,110.327945 33.263834,110.455913 C33.3156797,110.58388 33.2539709,110.729648 33.1260035,110.781493 C32.8474618,110.894344 32.5529153,110.964709 32.250099,110.989717 L32.250099,111.75 C32.250099,111.888071 32.1381702,112 32.000099,112 C31.8620278,112 31.750099,111.888071 31.750099,111.75 L31.750099,110.989732 Z M30.0619117,107.504913 C30.0959986,107.371116 30.2320957,107.290285 30.3658931,107.324372 C30.4996904,107.358458 30.5805217,107.494556 30.5464348,107.628353 C30.5157748,107.748699 30.500099,107.873209 30.500099,108 C30.500099,108.828427 31.1716719,109.5 32.000099,109.5 C32.1049442,109.5 32.2082486,109.489282 32.3089695,109.468217 C32.4441169,109.439954 32.5765878,109.5266 32.6048517,109.661747 C32.6331156,109.796895 32.5464694,109.929366 32.411322,109.957629 C32.2769882,109.985723 32.1393862,110 32.000099,110 C30.8955295,110 30.000099,109.104569 30.000099,108 C30.000099,107.831493 30.0209951,107.665519 30.0619117,107.504913 Z M46.0342434,107.974392 C46.012057,107.90354 46.000099,107.828167 46.000099,107.75 C46.000099,107.335786 46.3358854,107 46.750099,107 C47.1643126,107 47.500099,107.335786 47.500099,107.75 C47.500099,107.830261 47.4874915,107.907578 47.4641489,107.980078 L48.3219397,108.634144 C48.4433438,108.549582 48.5909311,108.5 48.750099,108.5 C48.8711664,108.5 48.9855338,108.528686 49.0867751,108.579632 L50.5748108,107.076716 C50.5269419,106.977958 50.500099,106.867114 50.500099,106.75 C50.500099,106.335786 50.8358854,106 51.250099,106 C51.6643126,106 52.000099,106.335786 52.000099,106.75 C52.000099,107.164214 51.6643126,107.5 51.250099,107.5 C51.1356389,107.5 51.0271674,107.47436 50.9301149,107.42851 L49.4333469,108.940245 C49.4762216,109.034667 49.500099,109.139545 49.500099,109.25 C49.500099,109.664214 49.1643126,110 48.750099,110 C48.3358854,110 48.000099,109.664214 48.000099,109.25 C48.000099,109.177172 48.0104793,109.106769 48.0298411,109.040188 L47.160879,108.377605 C47.0428842,108.454992 46.9017477,108.5 46.750099,108.5 C46.5963139,108.5 46.4533393,108.453715 46.3343459,108.374315 L45.4659546,109.025608 C45.488141,109.09646 45.500099,109.171833 45.500099,109.25 C45.500099,109.664214 45.1643126,110 44.750099,110 C44.3358854,110 44.000099,109.664214 44.000099,109.25 C44.000099,108.835786 44.3358854,108.5 44.750099,108.5 C44.9038841,108.5 45.0468587,108.546285 45.1658521,108.625685 L46.0342434,107.974392 Z M51.250099,107 C51.3881702,107 51.500099,106.888071 51.500099,106.75 C51.500099,106.611929 51.3881702,106.5 51.250099,106.5 C51.1120278,106.5 51.000099,106.611929 51.000099,106.75 C51.000099,106.888071 51.1120278,107 51.250099,107 Z M48.750099,109.5 C48.8881702,109.5 49.000099,109.388071 49.000099,109.25 C49.000099,109.111929 48.8881702,109 48.750099,109 C48.6120278,109 48.500099,109.111929 48.500099,109.25 C48.500099,109.388071 48.6120278,109.5 48.750099,109.5 Z M46.750099,108 C46.8881702,108 47.000099,107.888071 47.000099,107.75 C47.000099,107.611929 46.8881702,107.5 46.750099,107.5 C46.6120278,107.5 46.500099,107.611929 46.500099,107.75 C46.500099,107.888071 46.6120278,108 46.750099,108 Z M44.750099,109.5 C44.8881702,109.5 45.000099,109.388071 45.000099,109.25 C45.000099,109.111929 44.8881702,109 44.750099,109 C44.6120278,109 44.500099,109.111929 44.500099,109.25 C44.500099,109.388071 44.6120278,109.5 44.750099,109.5 Z M81.3969494,109 L78.6033646,109 L77.4756906,111.357864 C77.416119,111.482423 77.2668519,111.535105 77.1422931,111.475534 C77.0177344,111.415962 76.9650519,111.266695 77.0246234,111.142136 L78.0491233,109 L77.250157,109 C77.1120858,109 77.000157,108.888071 77.000157,108.75 C77.000157,108.611929 77.1120858,108.5 77.250157,108.5 L78.2882538,108.5 L79.3568583,106.265645 C79.1387595,106.082206 79.000157,105.807289 79.000157,105.5 C79.000157,104.947715 79.4478722,104.5 80.000157,104.5 C80.5524417,104.5 81.000157,104.947715 81.000157,105.5 C81.000157,105.807289 80.8615545,106.082206 80.6434557,106.265645 L81.7120602,108.5 L82.750157,108.5 C82.8882282,108.5 83.000157,108.611929 83.000157,108.75 C83.000157,108.888071 82.8882282,109 82.750157,109 L81.9511907,109 L82.9756906,111.142136 C83.0352621,111.266695 82.9825796,111.415962 82.8580209,111.475534 C82.7334621,111.535105 82.584195,111.482423 82.5246234,111.357864 L81.3969494,109 Z M81.157819,108.5 L80.1924622,106.481527 C80.1302303,106.493649 80.0659353,106.5 80.000157,106.5 C79.9343787,106.5 79.8700837,106.493649 79.8078518,106.481527 L78.842495,108.5 L81.157819,108.5 Z M64.8536524,109 L67.750099,109 C67.8881702,109 68.000099,109.111929 68.000099,109.25 C68.000099,109.388071 67.8881702,109.5 67.750099,109.5 L64.8536524,109.5 L65.9268757,110.573223 C66.0245068,110.670854 66.0245068,110.829146 65.9268757,110.926777 C65.8292446,111.024408 65.6709534,111.024408 65.5733223,110.926777 L64.0733223,109.426777 C63.9756912,109.329146 63.9756912,109.170854 64.0733223,109.073223 L65.5733223,107.573223 C65.6709534,107.475592 65.8292446,107.475592 65.9268757,107.573223 C66.0245068,107.670854 66.0245068,107.829146 65.9268757,107.926777 L64.8536524,109 Z M63.1465456,107 L60.250099,107 C60.1120278,107 60.000099,106.888071 60.000099,106.75 C60.000099,106.611929 60.1120278,106.5 60.250099,106.5 L63.1465456,106.5 L62.0733223,105.426777 C61.9756912,105.329146 61.9756912,105.170854 62.0733223,105.073223 C62.1709534,104.975592 62.3292446,104.975592 62.4268757,105.073223 L63.9268757,106.573223 C64.0245068,106.670854 64.0245068,106.829146 63.9268757,106.926777 L62.4268757,108.426777 C62.3292446,108.524408 62.1709534,108.524408 62.0733223,108.426777 C61.9756912,108.329146 61.9756912,108.170854 62.0733223,108.073223 L63.1465456,107 Z M128.250099,107.75 L130.500099,107.75 L130.500099,108.25 L128.250099,108.25 L128.250099,110.5 L127.750099,110.5 L127.750099,108.25 L125.500099,108.25 L125.500099,107.75 L127.750099,107.75 L127.750099,105.5 L128.250099,105.5 L128.250099,107.75 Z M109.500099,107.75 L114.500099,107.75 L114.500099,108.25 L109.500099,108.25 L109.500099,107.75 Z M98.0429922,106 L97.000099,104.957107 L97.000099,105.75 C97.000099,105.888071 97.1120278,106 97.250099,106 L98.0429922,106 Z M96.500099,104.5 L93.500099,104.5 L93.500099,111.5 L98.500099,111.5 L98.500099,106.5 L97.250099,106.5 C96.8358854,106.5 96.500099,106.164214 96.500099,105.75 L96.500099,104.5 Z M93.500099,104 L96.750099,104 L99.000099,106.25 L99.000099,111.5 C99.000099,111.776142 98.7762414,112 98.500099,112 L93.500099,112 C93.2239566,112 93.000099,111.776142 93.000099,111.5 L93.000099,104.5 C93.000099,104.223858 93.2239566,104 93.500099,104 Z M95.750099,109.146447 L95.750099,106.75 C95.750099,106.611929 95.8620278,106.5 96.000099,106.5 C96.1381702,106.5 96.250099,106.611929 96.250099,106.75 L96.250099,109.146447 L96.8233223,108.573223 C96.9209534,108.475592 97.0792446,108.475592 97.1768757,108.573223 C97.2745068,108.670854 97.2745068,108.829146 97.1768757,108.926777 L96.1768757,109.926777 C96.0792446,110.024408 95.9209534,110.024408 95.8233223,109.926777 L94.8233223,108.926777 C94.7256912,108.829146 94.7256912,108.670854 94.8233223,108.573223 C94.9209534,108.475592 95.0792446,108.475592 95.1768757,108.573223 L95.750099,109.146447 Z" id="icons" fill="#C2C2C2" fill-rule="nonzero"></path>
            </g>
        </g>
    </g>
</svg>

<svg width="160" height="120" xmlns="http://www.w3.org/2000/svg"><defs><linearGradient x1="50%" y1="97.164%" x2="50%" y2="3.828%" id="a"><stop stop-color="#101320" stop-opacity="0" offset="0%"/><stop stop-color="#FFF" stop-opacity=".16" offset="100%"/></linearGradient></defs><g fill="none" fill-rule="evenodd"><path fill="#101320" fill-rule="nonzero" d="M0 0h160v120H0z"/><path fill="url(#a)" d="M0 27.5l1.348 4.324 4.045 7.53 2.697 3.764 4.045-3.765h2.697l2.696-3.764 1.349 3.764 1.348-3.764 1.348 3.764h2.697l1.348 15.06 2.697-3.765 4.045-3.765 1.348 3.765h5.393l3.045 25.765 2.348-25.765 1.349 3.765 1.348-3.765 6.742-7.53 1.348-11.294 4.045-3.765 8.09 3.765 2.696 3.765h2.697l1.348-3.765 1.349 3.765 1.348-3.765 1.348-3.765 4.045-7.53 2.697-3.764h2.697L88.989 13l2.696 3.765h2.697l2.697 3.765 1.348 18.823 1.348-3.764 6.742-3.765h2.697l1.348 11.294 1.348-11.294 1.349 3.765H130V96H0z"/><path d="M12.33 39.59l-3.9 3.597a.5.5 0 0 1-.744-.075L4.954 39.33.909 31.875l-.05-.138L.01 27.6a.5.5 0 1 1 .98-.2l.833 4.063 3.975 7.335 2.367 3.271 3.631-3.346a.5.5 0 0 1 .339-.132h2.441l2.547-3.52a.5.5 0 0 1 .875.123l.878 2.427.879-2.427a.5.5 0 0 1 .94 0l1.229 3.397h2.346a.5.5 0 0 1 .498.455l1.228 13.583 1.98-2.724 4.045-3.727a.5.5 0 0 1 .809.197l1.229 3.398H39.1a.5.5 0 0 1 .497.441l2.484 20.99 1.914-20.977c.049-.532.787-.627.969-.124l.878 2.427.878-2.427.1-.166 6.634-7.336 1.33-11.024a.5.5 0 0 1 .157-.308l4.045-3.728a.5.5 0 0 1 .548-.086l8.09 3.727a.5.5 0 0 1 .196.161l2.547 3.52h2.09l1.23-3.397a.5.5 0 0 1 .94 0l.878 2.428.878-2.428 1.379-3.795 4.08-7.51 2.696-3.727a.5.5 0 0 1 .405-.207h2.346l1.229-3.397a.5.5 0 0 1 .875-.123l2.547 3.52h2.441a.5.5 0 0 1 .405.207l2.697 3.727a.5.5 0 0 1 .093.257l1.18 16.293.548-1.517a.5.5 0 0 1 .228-.268l6.742-3.727a.5.5 0 0 1 .242-.063h2.696a.5.5 0 0 1 .497.44l.852 7.066.852-7.065c.063-.523.787-.606.966-.11l1.23 3.397H130a.5.5 0 0 1 0 1h-16.742a.5.5 0 0 1-.47-.33l-.633-1.751-1.097 9.095c-.07.587-.922.587-.993 0l-1.295-10.742h-2.124l-6.464 3.574-1.285 3.551c-.183.508-.93.404-.969-.134L96.59 20.632l-2.463-3.405h-2.442a.5.5 0 0 1-.405-.207l-2.142-2.961-1.027 2.838a.5.5 0 0 1-.47.33h-2.442l-2.512 3.466-4.015 7.386-2.696 7.455a.5.5 0 0 1-.94 0l-.879-2.428-.878 2.428a.5.5 0 0 1-.47.33h-2.697a.5.5 0 0 1-.405-.207l-2.62-3.621-7.668-3.533-3.664 3.376-1.326 10.999a.5.5 0 0 1-.126.276l-6.675 7.381-1.315 3.635a.5.5 0 0 1-.94 0l-.585-1.615-2.144 23.49c-.055.598-.924.61-.994.014l-2.993-25.286h-4.95a.5.5 0 0 1-.47-.33l-1.092-3.022-3.425 3.145-2.697 3.727a.5.5 0 0 1-.903-.248l-1.307-14.454h-2.24a.5.5 0 0 1-.47-.33l-.878-2.428-.878 2.428a.5.5 0 0 1-.94 0l-1.028-2.839-2.142 2.962a.5.5 0 0 1-.406.207h-2.5z" fill="#FFF" fill-rule="nonzero"/><path d="M144.609 34.75l4.806-5.75H160v12h-10.585l-4.806-5.75H143.5v-.5h1.109zm-11.713 0h.604v.5h-.5v.05a1.5 1.5 0 1 1-.104-.55zm2.604.5v-.5h2v.5h-2zm4 0v-.5h2v.5h-2z" fill="#F93" fill-rule="nonzero"/><path fill="#101320" d="M5 96h151v24H5z"/><path fill="#191C31" fill-rule="nonzero" d="M5 96.5v-1h151v1z"/><path d="M34.29 109.937l.637.636a.25.25 0 0 1-.354.354l-5.5-5.5a.25.25 0 0 1 .354-.354l.636.636a2.987 2.987 0 0 1 1.687-.699v-.76a.25.25 0 0 1 .5 0v.76a3 3 0 0 1 2.74 2.74h.76a.25.25 0 0 1 0 .5h-.76a2.987 2.987 0 0 1-.7 1.687zm-.354-.355a2.5 2.5 0 0 0-3.518-3.518l.356.356a2 2 0 0 1 2.806 2.806l.356.356zm-.713-.713a1.5 1.5 0 0 0-2.092-2.092l2.092 2.092zm-1.473 2.12a3 3 0 0 1-2.74-2.739h-.76a.25.25 0 0 1 0-.5h.76c.024-.288.089-.569.192-.835a.25.25 0 0 1 .467.18 2.5 2.5 0 0 0 3.27 3.222.25.25 0 0 1 .187.464 2.984 2.984 0 0 1-.876.209v.76a.25.25 0 0 1-.5 0v-.76zm-1.688-3.484a.25.25 0 0 1 .484.123 1.503 1.503 0 0 0 1.763 1.84.25.25 0 0 1 .102.49 2 2 0 0 1-2.35-2.453zm15.972.47a.75.75 0 1 1 1.43.005l.858.654a.747.747 0 0 1 .765-.054l1.488-1.503a.75.75 0 1 1 .355.352l-1.497 1.511a.75.75 0 1 1-1.404.1l-.868-.662a.746.746 0 0 1-.827-.004l-.868.652a.75.75 0 1 1-.3-.4l.868-.652zM51.25 107a.25.25 0 1 0 0-.5.25.25 0 0 0 0 .5zm-2.5 2.5a.25.25 0 1 0 0-.5.25.25 0 0 0 0 .5zm-2-1.5a.25.25 0 1 0 0-.5.25.25 0 0 0 0 .5zm-2 1.5a.25.25 0 1 0 0-.5.25.25 0 0 0 0 .5zm36.647-.5h-2.794l-1.127 2.358a.25.25 0 0 1-.451-.216L78.049 109h-.799a.25.25 0 0 1 0-.5h1.038l1.069-2.234a1 1 0 1 1 1.287 0l1.068 2.234h1.038a.25.25 0 0 1 0 .5h-.799l1.025 2.142a.25.25 0 0 1-.451.216L81.397 109zm-.24-.5l-.965-2.018a1.005 1.005 0 0 1-.384 0l-.966 2.018h2.316zM80 106a.5.5 0 1 0 0-1 .5.5 0 0 0 0 1zm-15.146 3h2.896a.25.25 0 0 1 0 .5h-2.896l1.073 1.073a.25.25 0 0 1-.354.354l-1.5-1.5a.25.25 0 0 1 0-.354l1.5-1.5a.25.25 0 1 1 .354.354L64.854 109zm-1.708-2H60.25a.25.25 0 0 1 0-.5h2.896l-1.073-1.073a.25.25 0 0 1 .354-.354l1.5 1.5a.25.25 0 0 1 0 .354l-1.5 1.5a.25.25 0 1 1-.354-.354L63.146 107zm65.104.75h2.25v.5h-2.25v2.25h-.5v-2.25h-2.25v-.5h2.25v-2.25h.5v2.25zm-18.75 0h5v.5h-5v-.5zM98.043 106h-.793a.25.25 0 0 1-.25-.25v-.793L98.043 106zm-1.543-1.5h-3v7h5v-5h-1.25a.75.75 0 0 1-.75-.75v-1.25zm-3-.5h3.25l2.25 2.25v5.25a.5.5 0 0 1-.5.5h-5a.5.5 0 0 1-.5-.5v-7a.5.5 0 0 1 .5-.5zm2.25 5.146v-2.396a.25.25 0 0 1 .5 0v2.396l.573-.573a.25.25 0 1 1 .354.354l-1 1a.25.25 0 0 1-.354 0l-1-1a.25.25 0 0 1 .354-.354l.573.573z" fill="#7F8397" fill-rule="nonzero"/></g></svg>
